X:36
%%etbk:tnset id:13,pos:1,rep:3x,ant:
%%etbk:wsite http://www.thesession.org/tunes/display/1781
%%etbk:video src:ytube,cde:jvXiaQ4MNSA,desc:
%%etbk:skill ?
%%etbk:pldat 2013-11-26T16:42,2013-11-23T15:20,2013-11-04T18:03,2013-08-27T18:20,2013-05-22T16:57
T: Sporting Nell
Z: Piano Box Version by Martin Fleischmann
H: Created 2013-02-19 /  Last Modified 2013-05-22
M: 4/4
L: 1/8
R: Reel
K: Ddor
|: !3!A!1!DDD !3![A2D]!5!d!4!c | !3!A!4!c!2!G!4!c !1!E!4!c!2!G!4!c | !3!A!1!D (3DDD !3![A2D] !5!d!4!c|1 !3!A!4!c!2!G!1!E !1!E!1!D D2:|2 !3!A!4!c!2!G!1!E !1!E!2!G!3!A!4!B|
!2!c2!5!g!2!c !5!a!2!c!5!g!2!c | !2!c2!5!gc !1!A!3!dd!1!B | !2!c2!5!gc !5!ac!5!gc | !1!A!5!c!2!G!1!E !1!E!2!G!3!A!4!B |
!2!c2!5!gc !5!ac!5!gc | !2!c2!5!gc !1!A!3!dd!4!e | !5!f3d !4!eeed | !2!c!1!A!2!G!4!c !3!A!5!dd!4!c ||
